!!!OTL: An Liebchens T&uuml;r (174), S. 384
!!!id: T0351
**kern
*clefG2
*k[]
*G:
{8g
8a
8g
=1
8g
8a
8b
8dd
8dd
16b
16a
=2
4a}
8r
=3
{8a
8b
8a
=4
8a
8b
8cc
8ee
8ee
16dd
16cc
=5
4b}
8r
=6
{8dd
8dd
8b
=7
8dd
8b
8dd
8dd
8dd
8dd
=8
8b
8ee
8ee}
=9
{8ee
8dd
8cc
=10
4cc
8a
8dd
8dd
8cc
=11
8b}
4r
==
*-
!!!minrhy: 16
!!!meters: 3/4 ]  ZZ[4
!!!cut: An Liebchens T&uuml;r (174), S. 384
!!!reg: Luxemburg
!!!trd: Singendes Volk, Esch-Alzette, 1937 posth.
!!!rhy1: X_X_X_  X_X_X_X_X_XX  X__0_
!!!rhy2: X_X_X_  X_X_X_X_X_XX  X__0_
!!!key: T0351  16  G 3/4 ]  ZZ[4
!!!mod: SECHSTONSKALA DUR ?]  AMBITUS[6
!!!kad: 2363
!!!akz: 12_23_53_43_
!!!fot: 'a__as'b__c__
!!!for: 'a__a__b__c__
!!!fok: '^a_^a_Va_\__
!! PHRAS[AUFTAKTIG]
!!!fkt: Tage-. W&auml;chter-, Fenstergang-, St&auml;ndchenlieder, Liebeslied
!!!bem: Heffingen, ? M. Seiler, 12.3.1933
!! THILL, Mathias:
!! PR[24] 2K[4] 2G[9] 3K[16] 3G[7] 4A[0] 4Ü[0] 5A[4] 6K[0] 6G[0]
!! 7K[0] 7G[0] 8A[0] MEHR[0] SI[40] ABS[45] SR[13] SP[27]
!! ST[12] 2k[0] 2g[9] 3k[18] 3g[2] 4d[4] 4ü[0] 5d[2] 6k[0] 6g[0]
!! 7k[0] 7g[0] 8d[0] mehr[0] si[36] dm[+4] sr[9] sp[27]
!! 1F[50] 2F[50] 3F[0] 4F[0] LF[0] 2P[0] 3P[0] 4P[0] TRI[0] DF[2] AB[48]
!! TF[0] U3K[0] U3[0] U4[0] U4Ü[0] U5[0] U6K[0] U6[0] U7K[0] U7[0]
!! N1[13] N2K[0] N2[13] N3K[0] N3[30] N4[9] N4Ü[0] N5[24] N6K[0] N6[7]
!!!n7k: 0] N7[0] O1[4] O2K[0] O2[0] O3K[0] O3[0] HÖ[0
!!!RNB: symbol: &auml;      = a umlaut  (UTF-8: Å„)
!!!RNB: symbol: &uuml;  = u umlaut (UTF-8: Ã¼)
